X:154
T:County Hall
R:Reel
B:The Athole Collection
M:C|
L:1/8
K:G
B|G2 BG cABG|A=fcf A=FFA|G2BG cABG|Agdg BGG:|
B|Gggd gbgd|=fgfc A=FFA|Gggd gbgd|Bdgd BGGB|Gggd gbgd|
=fgfc A=FFA|BGcA dgfa|gedc BGG||

